static/app-icons/dark-theme/003.svg

<svg xmlns="http://www.w3.org/2000/svg" xmlns:xlink="http://www.w3.org/1999/xlink" viewBox="0 0 32 32"><defs><linearGradient id="linear-gradient" x1="-66" y1="7485" x2="-58" y2="7485" gradientTransform="matrix(1 0 0 -1 67 7498)" gradientUnits="userSpaceOnUse"><stop offset="0" stop-opacity="0"/><stop offset=".8"/></linearGradient><linearGradient id="linear-gradient-2" x1="-152" y1="7426.5" x2="-144" y2="7426.5" gradientTransform="matrix(1 0 0 -1 170 7432)" xlink:href="#linear-gradient"/><linearGradient id="linear-gradient-3" x1="-78.5" y1="7364" x2="-71.5" y2="7364" gradientTransform="matrix(1 0 0 -1 101.5 7386.5)" xlink:href="#linear-gradient"/><linearGradient id="linear-gradient-4" y1="32" x2="32" gradientUnits="userSpaceOnUse"><stop offset=".1" stop-color="#6fdc8c"/><stop offset=".9" stop-color="#009d9a"/></linearGradient><style>.cls-1{fill:#fff}.cls-7{fill:#f4f4f4}</style><mask id="mask" x="0" y="0" width="32" height="32" maskUnits="userSpaceOnUse"><path class="cls-1" d="M28 10h-2V8a2 2 0 00-2-2h-5V4h5a4 4 0 014 4zM24 28h-6v-2h6a2 2 0 002-2v-4h2v4a4 4 0 01-4 4zM6 16H4V8a4 4 0 014-4h1v2H8a2 2 0 00-2 2z"/><path transform="rotate(90 5 13)" fill="url(#linear-gradient)" d="M1 11h8v4H1z"/><path transform="rotate(180 22 5.5)" fill="url(#linear-gradient-2)" d="M18 3h8v5h-8z"/><path transform="rotate(-90 26.5 22.5)" fill="url(#linear-gradient-3)" d="M23 20h7v5h-7z"/></mask></defs><g id="Layer_2" data-name="Layer 2"><g id="Dark_theme_icons" data-name="Dark theme icons"><g mask="url(#mask)"><path fill="url(#linear-gradient-4)" d="M0 0h32v32H0z"/></g><path class="cls-7" d="M29 14v4h-4v-4h4m2-2h-8v8h8v-8zM15 9a4 4 0 114-4 4 4 0 01-4 4zm0-6a2 2 0 102 2 2 2 0 00-2-2zM5 25h6a3 3 0 013 3v2h-2v-2a1 1 0 00-1-1H5a1 1 0 00-1 1v2H2v-2a3 3 0 013-3zM12 20a4 4 0 11-4-4 4 4 0 014 4zm-6 0a2 2 0 102-2 2 2 0 00-2 2z"/></g></g></svg>

<svg xmlns="http://www.w3.org/2000/svg" xmlns:xlink="http://www.w3.org/1999/xlink" viewBox="0 0 32 32"><defs><style>.cls-1{fill:#fff;}.cls-2{fill:url(#linear-gradient);}.cls-3{fill:url(#linear-gradient-2);}.cls-4{fill:url(#linear-gradient-3);}.cls-5{mask:url(#mask);}.cls-6{fill:url(#linear-gradient-4);}.cls-7{fill:#f4f4f4;}</style><linearGradient id="linear-gradient" x1="-66" y1="7485" x2="-58" y2="7485" gradientTransform="matrix(1, 0, 0, -1, 67, 7498)" gradientUnits="userSpaceOnUse"><stop offset="0" stop-opacity="0"/><stop offset="0.8"/></linearGradient><linearGradient id="linear-gradient-2" x1="-152" y1="7426.5" x2="-144" y2="7426.5" gradientTransform="matrix(1, 0, 0, -1, 170, 7432)" xlink:href="#linear-gradient"/><linearGradient id="linear-gradient-3" x1="-78.5" y1="7364" x2="-71.5" y2="7364" gradientTransform="matrix(1, 0, 0, -1, 101.5, 7386.5)" xlink:href="#linear-gradient"/><mask id="mask" x="0" y="0" width="32" height="32" maskUnits="userSpaceOnUse"><path class="cls-1" d="M28,10H26V8a2,2,0,0,0-2-2H19V4h5a4,4,0,0,1,4,4Z"/><path class="cls-1" d="M24,28H18V26h6a2,2,0,0,0,2-2V20h2v4A4,4,0,0,1,24,28Z"/><path class="cls-1" d="M6,16H4V8A4,4,0,0,1,8,4H9V6H8A2,2,0,0,0,6,8Z"/><rect class="cls-2" x="1" y="11" width="8" height="4" transform="translate(18 8) rotate(90)"/><rect class="cls-3" x="18" y="3" width="8" height="5" transform="translate(44 11) rotate(180)"/><rect class="cls-4" x="23" y="20" width="7" height="5" transform="translate(4 49) rotate(-90)"/></mask><linearGradient id="linear-gradient-4" y1="32" x2="32" gradientUnits="userSpaceOnUse"><stop offset="0.1" stop-color="#6fdc8c"/><stop offset="0.9" stop-color="#009d9a"/></linearGradient></defs><g id="Layer_2" data-name="Layer 2"><g id="Dark_theme_icons" data-name="Dark theme icons"><g class="cls-5"><rect class="cls-6" width="32" height="32"/></g><path class="cls-7" d="M29,14v4H25V14h4m2-2H23v8h8V12Z"/><path class="cls-7" d="M15,9a4,4,0,1,1,4-4A4,4,0,0,1,15,9Zm0-6a2,2,0,1,0,2,2A2,2,0,0,0,15,3Z"/><path class="cls-7" d="M5,25h6a3,3,0,0,1,3,3v2H12V28a1,1,0,0,0-1-1H5a1,1,0,0,0-1,1v2H2V28A3,3,0,0,1,5,25Z"/><path class="cls-7" d="M12,20a4,4,0,1,1-4-4A4,4,0,0,1,12,20ZM6,20a2,2,0,1,0,2-2A2,2,0,0,0,6,20Z"/></g></g></svg>
